P3
64 64
255
6 24 44 6 24 44 6 24 44 6 24 44 6 24 44 6 24 44 6 24 44 6 24 44
6 24 44 6 24 44 6 24 44 6 24 44 6 24 44 6 24 44 6 24 44 6 24 44
6 24 44 6 24 44 6 24 44 6 24 44 6 24 44 6 24 44 6 24 44 6 24 44
6 24 44 6 24 44 6 24 44 6 24 44 6 24 44 6 24 44 6 24 44 6 24 44
6 24 44 6 24 44 6 24 44 6 24 44 6 24 44 6 24 44 6 24 44 6 24 44
6 24 44 6 24 44 6 24 44 6 24 44 6 24 44 6 24 44 6 24 44 6 24 44
6 24 44 6 24 44 6 24 44 6 24 44 6 24 44 6 24 44 6 24 44 6 24 44
6 24 44 6 24 44 6 24 44 6 24 44 6 24 44 6 24 44 6 24 44 6 24 44
6 24 44 6 24 44 6 24 44 6 24 44 6 24 44 6 24 44 6 24 44 6 24 44
6 24 44 6 24 44 6 24 44 6 24 44 6 24 44 6 24 44 6 24 44 6 24 44
6 24 44 6 24 44 6 24 44 6 24 44 6 24 44 6 24 44 6 24 44 6 24 44
6 24 44 6 24 44 6 24 44 6 24 44 6 24 44 6 24 44 6 24 44 6 24 44
6 24 44 6 24 44 6 24 44 6 24 44 6 24 44 6 24 44 6 24 44 6 24 44
6 24 44 6 24 44 6 24 44 6 24 44 6 24 44 6 24 44 6 24 44 6 24 44
6 24 44 6 24 44 6 24 44 6 24 44 6 24 44 6 24 44 6 24 44 6 24 44
6 24 44 6 24 44 6 24 44 6 24 44 6 24 44 6 24 44 6 24 44 6 24 44
6 24 44 6 24 44 6 24 44 6 24 44 6 24 44 6 24 44 6 24 44 6 24 44
6 24 44 6 24 44 6 24 44 6 24 44 6 24 44 6 24 44 6 24 44 6 24 44
6 24 44 6 24 44 6 24 44 6 24 44 6 24 44 6 24 44 6 24 44 6 24 44
6 24 44 6 24 44 6 24 44 6 24 44 6 24 44 6 24 44 6 24 44 6 24 44
6 24 44 6 24 44 6 24 44 6 24 44 6 24 44 6 24 44 6 24 44 6 24 44
6 24 44 6 24 44 6 24 44 6 24 44 6 24 44 6 24 44 6 24 44 6 24 44
6 24 44 6 24 44 6 24 44 6 24 44 6 24 44 6 24 44 6 24 44 6 24 44
6 24 44 6 24 44 6 24 44 6 24 44 6 24 44 6 24 44 6 24 44 6 24 44
6 24 44 6 24 44 6 24 44 6 24 44 6 24 44 6 24 44 6 24 44 6 24 44
6 24 44 6 24 44 6 24 44 6 24 44 6 24 44 6 24 44 6 24 44 6 24 44
6 24 44 6 24 44 6 24 44 6 24 44 6 24 44 6 24 44 6 24 44 6 24 44
6 24 44 6 24 44 6 24 44 6 24 44 6 24 44 6 24 44 6 24 44 6 24 44
6 24 44 6 24 44 6 24 44 6 24 44 6 24 44 6 24 44 6 24 44 6 24 44
6 24 44 6 24 44 6 24 44 6 24 44 6 24 44 6 24 44 6 24 44 6 24 44
6 24 44 6 24 44 6 24 44 6 24 44 6 24 44 6 24 44 6 24 44 6 24 44
6 24 44 6 24 44 6 24 44 6 24 44 6 24 44 6 24 44 6 24 44 6 24 44
6 24 44 6 24 44 6 24 44 6 24 44 6 24 44 6 24 44 6 24 44 6 24 44
6 24 44 6 24 44 6 24 44 6 24 44 6 24 44 6 24 44 6 24 44 6 24 44
6 24 44 6 24 44 6 24 44 6 24 44 6 24 44 6 24 44 6 24 44 6 24 44
6 24 44 6 24 44 6 24 44 6 24 44 6 24 44 6 24 44 6 24 44 6 24 44
6 24 44 6 24 44 6 24 44 6 24 44 6 24 44 6 24 44 6 24 44 6 24 44
6 24 44 6 24 44 6 24 44 6 24 44 6 24 44 6 24 44 6 24 44 6 24 44
6 24 44 6 24 44 6 24 44 6 24 44 6 24 44 6 24 44 6 24 44 6 24 44
6 24 44 6 24 44 6 24 44 6 24 44 6 24 44 6 24 44 6 24 44 6 24 44
6 24 44 6 24 44 6 24 44 6 24 44 6 24 44 6 24 44 6 24 44 6 24 44
6 24 44 6 24 44 6 24 44 6 24 44 6 24 44 6 24 44 6 24 44 6 24 44
6 24 44 6 24 44 6 24 44 6 24 44 6 24 44 6 24 44 6 24 44 6 24 44
6 24 44 6 24 44 6 24 44 6 24 44 6 24 44 6 24 44 6 24 44 6 24 44
6 24 44 6 24 44 6 24 44 6 24 44 6 24 44 6 24 44 6 24 44 6 24 44
6 24 44 6 24 44 6 24 44 6 24 44 6 24 44 6 24 44 6 24 44 6 24 44
6 24 44 6 24 44 6 24 44 6 24 44 6 24 44 6 24 44 6 24 44 6 24 44
6 24 44 6 24 44 6 24 44 6 24 44 6 24 44 6 24 44 6 24 44 6 24 44
6 24 44 6 24 44 6 24 44 6 24 44 6 24 44 6 24 44 6 24 44 6 24 44
6 24 44 6 24 44 6 24 44 6 24 44 6 24 44 6 24 44 6 24 44 6 24 44
6 24 44 6 24 44 6 24 44 6 24 44 6 24 44 6 24 44 6 24 44 6 24 44
6 24 44 6 24 44 6 24 44 6 24 44 6 24 44 6 24 44 6 24 44 6 24 44
6 24 44 6 24 44 6 24 44 6 24 44 6 24 44 6 24 44 6 24 44 6 24 44
6 24 44 6 24 44 6 24 44 6 24 44 6 24 44 6 24 44 6 24 44 6 24 44
6 24 44 6 24 44 6 24 44 6 24 44 6 24 44 6 24 44 6 24 44 6 24 44
6 24 44 6 24 44 6 24 44 6 24 44 6 24 44 6 24 44 6 24 44 6 24 44
6 24 44 6 24 44 6 24 44 6 24 44 6 24 44 6 24 44 6 24 44 6 24 44
6 24 44 6 24 44 6 24 44 6 24 44 6 24 44 6 24 44 6 24 44 6 24 44
6 24 44 6 24 44 6 24 44 6 24 44 6 24 44 6 24 44 6 24 44 6 24 44
6 24 44 6 24 44 6 24 44 6 24 44 6 24 44 6 24 44 6 24 44 6 24 44
6 24 44 6 24 44 6 24 44 6 24 44 6 24 44 6 24 44 6 24 44 6 24 44
6 24 44 6 24 44 6 24 44 6 24 44 6 24 44 6 24 44 6 24 44 6 24 44
6 24 44 6 24 44 6 24 44 6 24 44 6 24 44 6 24 44 6 24 44 6 24 44
6 24 44 6 24 44 6 24 44 6 24 44 6 24 44 6 24 44 6 24 44 6 24 44
